kora/actions/scalable/path-clip-edit.svg

<svg xmlns="http://www.w3.org/2000/svg" width="16" height="16" version="1.1">
 <defs>
  <style id="current-color-scheme" type="text/css">
   .ColorScheme-Text { color:#dfdfdf; } .ColorScheme-Highlight { color:#4285f4; }
  </style>
 </defs>
 <path style="fill:currentColor" class="ColorScheme-Text" d="M 14,2 C 8.5,2 2,7.5 2,14 V 15 H 3 V 14 C 3,8 9,3 14,3 H 15 V 2 Z M 6.373,6.3193 5.666,7.0264 C 7.117,8.4775 7.9276,10.168 8.1523,11.404 8.3771,12.64 8.063,13.689 7.166,14.586 L 7.873,15.293 C 8.9763,14.19 9.412,12.741 9.1367,11.227 8.8614,9.7126 7.9222,7.8686 6.373,6.3193 Z M 7.373,5.086 6.666,5.7931 C 8.2153,7.3423 9.7906,8.2815 11.305,8.5567 12.819,8.832 14.27,8.3963 15.373,7.2931 L 14.666,6.586 C 13.769,7.483 12.72,7.7971 11.484,7.5724 10.248,7.3476 8.8241,6.537 7.373,5.086 Z"/>
 <path style="fill:currentColor" class="ColorScheme-Text" d="M 4,14.5 A 1.5,1.5 0 0 1 2.5,16 1.5,1.5 0 0 1 1,14.5 1.5,1.5 0 0 1 2.5,13 1.5,1.5 0 0 1 4,14.5 Z M 16,2.5 A 1.5,1.5 0 0 1 14.5,4 1.5,1.5 0 0 1 13,2.5 1.5,1.5 0 0 1 14.5,1 1.5,1.5 0 0 1 16,2.5 Z"/>
</svg>

<svg xmlns="http://www.w3.org/2000/svg" style="fill-rule:evenodd;clip-rule:evenodd;stroke-linejoin:round;stroke-miterlimit:2" width="100%" height="100%" version="1.1" viewBox="0 0 16 16" xml:space="preserve">
 <defs>
  <style id="current-color-scheme" type="text/css">
   .ColorScheme-Text { color:#dfdfdf; } .ColorScheme-Highlight { color:#4285f4; } .ColorScheme-NeutralText { color:#ff9800; } .ColorScheme-PositiveText { color:#4caf50; } .ColorScheme-NegativeText { color:#f44336; }
  </style>
 </defs>
 <path style="fill:currentColor;" class="ColorScheme-Text" d="M14,2c-5.5,0 -12,5.5 -12,12l0,1l1,0l0,-1c0,-6 6,-11 11,-11l1,0l0,-1l-1,0Zm-7.627,4.319l-0.707,0.707c1.451,1.451 2.262,3.142 2.486,4.378c0.225,1.236 -0.089,2.285 -0.986,3.182l0.707,0.707c1.103,-1.103 1.539,-2.552 1.264,-4.066c-0.276,-1.514 -1.215,-3.358 -2.764,-4.908Zm1,-1.233l-0.707,0.707c1.549,1.549 3.125,2.488 4.639,2.764c1.514,0.275 2.965,-0.161 4.068,-1.264l-0.707,-0.707c-0.897,0.897 -1.946,1.211 -3.182,0.986c-1.236,-0.224 -2.66,-1.035 -4.111,-2.486Z"/>
 <path style="fill:currentColor;" class="ColorScheme-Text" d="M4,14.5c0,0.823 -0.677,1.5 -1.5,1.5c-0.823,0 -1.5,-0.677 -1.5,-1.5c-0,-0.823 0.677,-1.5 1.5,-1.5c0.823,0 1.5,0.677 1.5,1.5Zm12,-12c0,0.823 -0.677,1.5 -1.5,1.5c-0.823,0 -1.5,-0.677 -1.5,-1.5c0,-0.823 0.677,-1.5 1.5,-1.5c0.823,-0 1.5,0.677 1.5,1.5Z"/>
</svg>
